app/assets/svg/contacts__social-fb.svg

<svg width="24" height="24" viewBox="0 0 24 24" fill="none" xmlns="http://www.w3.org/2000/svg">
<circle cx="12" cy="12" r="12" fill="#FFFDFB"/>
<path d="M24 12C24 5.3736 18.6264 0 12 0C5.3736 0 0 5.3736 0 12C0 18.6264 5.3736 24 12 24C12.0705 24 12.1406 23.9985 12.2109 23.9973V14.6558H9.63281V11.6512H12.2109V9.44019C12.2109 6.87598 13.7763 5.48035 16.0637 5.48035C17.159 5.48035 18.1005 5.56201 18.375 5.59845V8.27838H16.7977C15.5533 8.27838 15.3124 8.86981 15.3124 9.73755V11.6512H18.2878L17.9 14.6558H15.3124V23.5364C20.3282 22.0984 24 17.4774 24 12Z" fill="#1A212F"/>
</svg>

<svg width="24" height="24" fill="none" xmlns="http://www.w3.org/2000/svg"><circle cx="12" cy="12" r="12" fill="#FFFDFB"/><path d="M24 12c0-6.626-5.374-12-12-12S0 5.374 0 12s5.374 12 12 12l.21-.003v-9.341H9.634V11.65h2.578v-2.21c0-2.565 1.565-3.96 3.853-3.96 1.095 0 2.037.081 2.311.117v2.68h-1.577c-1.245 0-1.486.592-1.486 1.46v1.913h2.976l-.388 3.005h-2.588v8.88C20.328 22.098 24 17.477 24 12Z" fill="#1A212F"/></svg>
